src/_assets/activityfeed/All.svg

<svg width="24" height="24" viewBox="0 0 24 24" fill="none" xmlns="http://www.w3.org/2000/svg">
<path d="M13.5 3.75H10.5" stroke="#485F7D" stroke-width="1.6" stroke-linecap="round" stroke-linejoin="round"/>
<path d="M10.5 20.25H13.5" stroke="#485F7D" stroke-width="1.6" stroke-linecap="round" stroke-linejoin="round"/>
<path d="M17.25 3.75H19.5C19.6989 3.75 19.8897 3.82902 20.0303 3.96967C20.171 4.11032 20.25 4.30109 20.25 4.5V6.75" stroke="#485F7D" stroke-width="1.6" stroke-linecap="round" stroke-linejoin="round"/>
<path d="M20.25 13.5V10.5" stroke="#485F7D" stroke-width="1.6" stroke-linecap="round" stroke-linejoin="round"/>
<path d="M17.25 20.25H19.5C19.6989 20.25 19.8897 20.171 20.0303 20.0303C20.171 19.8897 20.25 19.6989 20.25 19.5V17.25" stroke="#485F7D" stroke-width="1.6" stroke-linecap="round" stroke-linejoin="round"/>
<path d="M3.75 10.5V13.5" stroke="#485F7D" stroke-width="1.6" stroke-linecap="round" stroke-linejoin="round"/>
<path d="M6.75 20.25H4.5C4.30109 20.25 4.11032 20.171 3.96967 20.0303C3.82902 19.8897 3.75 19.6989 3.75 19.5V17.25" stroke="#485F7D" stroke-width="1.6" stroke-linecap="round" stroke-linejoin="round"/>
<path d="M6.75 3.75H4.5C4.30109 3.75 4.11032 3.82902 3.96967 3.96967C3.82902 4.11032 3.75 4.30109 3.75 4.5V6.75" stroke="#485F7D" stroke-width="1.6" stroke-linecap="round" stroke-linejoin="round"/>
<path d="M16.5 7.5H7.5V16.5H16.5V7.5Z" stroke="#485F7D" stroke-width="1.6" stroke-linecap="round" stroke-linejoin="round"/>
</svg>

<svg xmlns="http://www.w3.org/2000/svg" width="24" height="24" fill="none"><path stroke="#485F7D" stroke-linecap="round" stroke-linejoin="round" stroke-width="1.6" d="M13.5 3.75h-3m0 16.5h3m3.75-16.5h2.25a.75.75 0 01.75.75v2.25m0 6.75v-3m-3 9.75h2.25a.75.75 0 00.75-.75v-2.25M3.75 10.5v3m3 6.75H4.5a.75.75 0 01-.75-.75v-2.25m3-13.5H4.5a.75.75 0 00-.75.75v2.25m12.75.75h-9v9h9z"/></svg>
